logo-lockup/vertical_white.svg

<svg height="113" viewBox="0 0 114 113" width="114" xmlns="http://www.w3.org/2000/svg"><g fill="none"><g transform="translate(20.090178)"><path d="m24.9198867 1.26111768c-2.6273277 16.11095342 5.1061354 28.47492302 23.2003934 37.09190972 17.6921663 8.4254979 25.4891749 21.8042447 23.3910298 40.1362405l-.1583871 1.2575844h-24.2094992c.7915445-6.0475267-.1011072-10.3265531-2.6779591-12.8370793-9.5555227-9.3095751-18.9748292-9.5173129-28.6077766-19.8377552-12.31631457-13.1953237-17.45827283-27.9540317-15.42587474-44.27612375l.21155899-1.53477637z" fill="#ff4c4c"/><path d="m73 0v29.3209871h-29.320987v-29.3209871z" fill="#ffb500"/><path d="m19.0109786 7.12730449c-.5273289 4.44386771.5423556 9.78525241 3.2090535 16.02415391 2.8507035 6.6693934 9.7007662 11.7137246 13.702455 15.1595105 4.0016888 3.4457858 4.0016888 3.8351781 4.8635781 5.4834035.8618894 1.6482254-.2867905 9.7552521-1.222476 9.8713937s-7.0997356.1590869-19.7797011-11.1601552c-10.70507747-9.5562849-15.659204-21.3490537-14.86237964-35.37830641z" fill="#2e53c2"/></g><path d="m60.4969478 92.831758c3.8396227 0 6.5896227 2.9316037 6.5896227 7.0566037 0 4.1768873-2.620283 7.1084903-6.4339623 7.1084903-2.7303188 0-4.08209-1.572028-4.5690375-2.427678l-.048887-.088831h-.1556604v8.146226h-2.0495283v-19.4575469h1.9716981v2.1273585h.1556604c.3372641-.4929245 1.6084906-2.4646226 4.5400943-2.4646226zm-55.20449497 0c2.33490566 0 4.59198113 1.3490566 4.90330187 3.7877358l-1.79009432.5188679c-.18160378-1.5825471-1.47877359-2.5424528-3.24292453-2.5424528-1.68632076 0-2.7759434.8301887-2.7759434 1.9976415 0 1.4760898 1.50385323 1.7857293 3.21513449 2.1069203l.41402635.0779108c2.15285406.4099173 4.46517881.9824998 4.46517881 3.9637535 0 2.542453-2.10141512 4.254717-5.24056606 4.254717-3.03537736 0-4.92924528-1.660377-5.24056604-4.073113l1.86792453-.466981c.15566038 1.816038 1.42688679 2.75 3.47641509 2.75 2.02358491 0 3.13915095-.985849 3.13915095-2.360849 0-1.690954-1.60801902-2.053094-3.38832579-2.411356l-.42984646-.086587c-2.08647359-.4247015-4.25022398-.9868111-4.25022398-3.7544156 0-2.2830189 2.0495283-3.7617924 4.87735849-3.7617924zm23.38415647 0c4.0731132 0 7.0306604 3.0353773 7.0306604 7.0825471 0 4.0471699-3.009434 7.0825469-7.0566038 7.0825469s-7.0306604-2.98349-7.0306604-7.0825469c0-4.0731132 3.0353774-7.0825471 7.0566038-7.0825471zm54.088929 0c3.9864512 0 6.3078743 2.7336283 6.4048536 6.6442501l.0031653.2566933v.7523586h-10.8443397c.0259434 3.009434 1.7900944 4.695755 4.5919812 4.695755 1.8262298 0 3.5077192-1.013183 4.0209475-2.760405l.0521657-.197143 1.9976415.466982c-.7523585 2.516509-2.9834906 4.306603-6.0966981 4.306603-4.0990566 0-6.6674529-2.879717-6.6674529-7.0306601 0-4.3066037 2.9575472-7.1344339 6.5377359-7.1344339zm13.0281631 0c2.3349057 0 4.5919816 1.3490566 4.9033016 3.7877358l-1.790094.5188679c-.1816038-1.5825471-1.4787736-2.5424528-3.2429245-2.5424528-1.6863208 0-2.7759434.8301887-2.7759434 1.9976415 0 3.4245286 8.0943399.5707547 8.0943399 6.1485846 0 2.542453-2.1014154 4.254717-5.2405663 4.254717-3.0353774 0-4.9292453-1.660377-5.2405661-4.073113l1.8679245-.466981c.1556604 1.816038 1.4268868 2.75 3.4764151 2.75 2.0235849 0 3.139151-.985849 3.139151-2.360849 0-1.742359-1.7072727-2.073884-3.5511271-2.444056l-.2411482-.048622c-2.0944266-.4253523-4.2761209-.980624-4.2761209-3.7596806 0-2.2830189 2.0495283-3.7617924 4.8773584-3.7617924zm12.1979746 0c2.334906 0 4.591981 1.3490566 4.903302 3.7877358l-1.790095.5188679c-.181603-1.5825471-1.478773-2.5424528-3.242924-2.5424528-1.686321 0-2.775943.8301887-2.775943 1.9976415 0 3.4245286 8.094339.5707547 8.094339 6.1485846 0 2.542453-2.101415 4.254717-5.240566 4.254717-3.035377 0-4.929245-1.660377-5.240566-4.073113l1.867925-.466981c.15566 1.816038 1.426886 2.75 3.476415 2.75 2.023585 0 3.139151-.985849 3.139151-2.360849 0-3.7877359-8.068397-.908019-8.068397-6.2523586 0-2.2830189 2.049529-3.7617924 4.877359-3.7617924zm-91.7205883-3.5801887v3.9174528h4.1509434v1.7382076h-4.1509434v7.8867923c0 1.45283.5966981 2.075472 2.0235849 2.075472h1.9457547v1.790094h-1.9198113c-2.4646227 0-4.0990566-1.115566-4.0990566-3.839622v-7.9127363h-2.5424529v-1.7382076h2.6721699v-3.9174528zm28.2874584 3.5801887v2.0495283h-1.2193397c-2.4646226 0-3.4764151 1.9976415-3.4764151 4.5660377v7.212264h-2.0495283v-13.4905659h2.0235849v2.2570755h.1556604c.389151-1.1415094 1.7122642-2.5943396 3.6839623-2.5943396zm5.6602386.3372641v13.4905659h-2.0495283v-11.7523583h-2.5424528v-1.7382076zm25.7190621-.3372641v2.0495283h-1.2193396c-2.4646226 0-3.4764151 1.9976415-3.4764151 4.5660377v7.212264h-2.0495283v-13.4905659h2.0235849v2.2570755h.1556604c.3891509-1.1415094 1.7122642-2.5943396 3.6839623-2.5943396zm-52.0480242 5.8034073c-.7856135 2.9319497.6300487 5.5673957 3.4116417 6.3127207 2.8066524.752041 5.3570895-.847551 6.1359883-3.754441.7721842-2.8818306-.6300486-5.5673956-3.436701-6.3194359-2.8066524-.7520402-5.3454595.904385-6.110929 3.7611562zm32.1682166.4562014c-.5766431 3.2703053 1.1339258 5.5213523 3.6377531 5.9628443 2.6060243.459512 4.8705863-1.327704 5.4066841-4.368066.5496129-3.1170094-1.0918374-5.4612434-3.6467632-5.9117457-2.7593198-.4865425-4.9066265 1.5320983-5.397674 4.3169674zm22.7005998-.8793119-.0390952.225993 8.6579657.7574738c.1149772-2.8025303-1.7057953-4.3160371-3.9284373-4.510493-2.1302276-.1863708-4.2221625 1.1488694-4.6904332 3.5270262zm-29.5775902-10.4652025c.8820755 0 1.504717.6485849 1.504717 1.4787736 0 .8561321-.6226415 1.504717-1.504717 1.504717-.856132 0-1.4787736-.6485849-1.4787736-1.504717 0-.8301887.6226416-1.4787736 1.4787736-1.4787736z" fill="#fff"/></g></svg>

<?xml version="1.0" encoding="UTF-8"?>
<svg width="114px" height="113px" viewBox="0 0 114 113" version="1.1" xmlns="http://www.w3.org/2000/svg" xmlns:xlink="http://www.w3.org/1999/xlink">
    <title>vertical_white</title>
    <g id="🚧-Manager-v2" stroke="none" stroke-width="1" fill="none" fill-rule="evenodd">
        <g id="vertical_white" fill-rule="nonzero">
            <g id="Group-2" transform="translate(20.090178, 0.000000)">
                <path d="M24.9198867,1.26111768 C22.292559,17.3720711 30.0260221,29.7360407 48.1202801,38.3530274 C65.8124464,46.7785253 73.609455,60.1572721 71.5113099,78.4892679 L71.3529228,79.7468523 L47.1434236,79.7468523 C47.9349681,73.6993256 47.0423164,69.4202992 44.4654645,66.909773 C34.9099418,57.6001979 25.4906353,57.3924601 15.8576879,47.0720178 C3.54137333,33.8766941 -1.60058493,19.1179861 0.431813162,2.79589405 L0.64337215,1.26111768 L24.9198867,1.26111768 Z" id="SP-Logo-[WHITE]-path" fill="#FF4C4C"></path>
                <polygon id="SP-Logo-[WHITE]-path" fill="#FFB500" points="73 0 73 29.3209871 43.679013 29.3209871 43.679013 0"></polygon>
                <path d="M19.0109786,7.12730449 C18.4836497,11.5711722 19.5533342,16.9125569 22.2200321,23.1514584 C25.0707356,29.8208518 31.9207983,34.865183 35.9224871,38.3109689 C39.9241759,41.7567547 39.9241759,42.146147 40.7860652,43.7943724 C41.6479546,45.4425978 40.4992747,53.5496245 39.5635892,53.6657661 C38.6279037,53.7819077 32.4638536,53.824853 19.7838881,42.5056109 C9.07881063,32.949326 4.1246841,21.1565572 4.92150846,7.12730449 L19.0109786,7.12730449 Z" id="Line-6" fill="#2E53C2"></path>
            </g>
            <path d="M60.4969478,92.831758 C64.3365705,92.831758 67.0865705,95.7633617 67.0865705,99.8883617 C67.0865705,104.065249 64.4662875,106.996852 60.6526082,106.996852 C57.9222894,106.996852 56.5705182,105.424824 56.0835707,104.569174 L56.0346837,104.480343 L55.8790233,104.480343 L55.8790233,112.626569 L53.829495,112.626569 L53.829495,93.1690221 L55.8011931,93.1690221 L55.8011931,95.2963806 L55.9568535,95.2963806 C56.2941176,94.8034561 57.5653441,92.831758 60.4969478,92.831758 Z M5.29245283,92.831758 C7.62735849,92.831758 9.88443396,94.1808146 10.1957547,96.6194938 L10.1957547,96.6194938 L8.40566038,97.1383617 C8.2240566,95.5558146 6.92688679,94.5959089 5.16273585,94.5959089 C3.47641509,94.5959089 2.38679245,95.4260976 2.38679245,96.5935504 C2.38679245,98.0696402 3.89064568,98.3792797 5.60192694,98.7004707 L6.01595329,98.7783815 C8.16880735,99.1882988 10.4811321,99.7608813 10.4811321,102.742135 C10.4811321,105.284588 8.37971698,106.996852 5.24056604,106.996852 C2.20518868,106.996852 0.311320755,105.336475 0,102.923739 L0,102.923739 L1.86792453,102.456758 C2.02358491,104.272796 3.29481132,105.206758 5.34433962,105.206758 C7.36792453,105.206758 8.48349057,104.220909 8.48349057,102.845909 C8.48349057,101.154955 6.87547155,100.792815 5.09516478,100.434553 L4.66531832,100.347966 C2.57884473,99.9232645 0.41509434,99.3611549 0.41509434,96.5935504 C0.41509434,94.3105315 2.46462264,92.831758 5.29245283,92.831758 Z M28.6766093,92.831758 C32.7497225,92.831758 35.7072697,95.8671353 35.7072697,99.9143051 C35.7072697,103.961475 32.6978357,106.996852 28.6506659,106.996852 C24.6034961,106.996852 21.6200055,104.013362 21.6200055,99.9143051 C21.6200055,95.8411919 24.6553829,92.831758 28.6766093,92.831758 Z M82.7655383,92.831758 C86.7519895,92.831758 89.0734126,95.5653863 89.1703919,99.4760081 L89.1735572,99.7327014 L89.1735572,100.48506 L78.3292175,100.48506 C78.3551609,103.494494 80.1193119,105.180815 82.9211987,105.180815 C84.7474285,105.180815 86.4289179,104.167632 86.9421462,102.42041 L86.9943119,102.223267 L88.9919534,102.690249 C88.2395949,105.206758 86.0084628,106.996852 82.8952553,106.996852 C78.7961987,106.996852 76.2278024,104.117135 76.2278024,99.9661919 C76.2278024,95.6595882 79.1853496,92.831758 82.7655383,92.831758 Z M95.7937014,92.831758 C98.1286071,92.831758 100.385683,94.1808146 100.697003,96.6194938 L100.697003,96.6194938 L98.906909,97.1383617 C98.7253052,95.5558146 97.4281354,94.5959089 95.6639845,94.5959089 C93.9776637,94.5959089 92.8880411,95.4260976 92.8880411,96.5935504 C92.8880411,100.018079 100.982381,97.1643051 100.982381,102.742135 C100.982381,105.284588 98.8809656,106.996852 95.7418147,106.996852 C92.7064373,106.996852 90.8125694,105.336475 90.5012486,102.923739 L90.5012486,102.923739 L92.3691731,102.456758 C92.5248335,104.272796 93.7960599,105.206758 95.8455882,105.206758 C97.8691731,105.206758 98.9847392,104.220909 98.9847392,102.845909 C98.9847392,101.10355 97.2774665,100.772025 95.4336121,100.401853 L95.4336121,100.401853 L95.1924639,100.353231 C93.0980373,99.9278787 90.916343,99.372607 90.916343,96.5935504 C90.916343,94.3105315 92.9658713,92.831758 95.7937014,92.831758 Z M107.991676,92.831758 C110.326582,92.831758 112.583657,94.1808146 112.894978,96.6194938 L112.894978,96.6194938 L111.104883,97.1383617 C110.92328,95.5558146 109.62611,94.5959089 107.861959,94.5959089 C106.175638,94.5959089 105.086016,95.4260976 105.086016,96.5935504 C105.086016,100.018079 113.180355,97.1643051 113.180355,102.742135 C113.180355,105.284588 111.07894,106.996852 107.939789,106.996852 C104.904412,106.996852 103.010544,105.336475 102.699223,102.923739 L102.699223,102.923739 L104.567148,102.456758 C104.722808,104.272796 105.994034,105.206758 108.043563,105.206758 C110.067148,105.206758 111.182714,104.220909 111.182714,102.845909 C111.182714,99.0581731 103.114317,101.93789 103.114317,96.5935504 C103.114317,94.3105315 105.163846,92.831758 107.991676,92.831758 Z M16.2710877,89.2515693 L16.2710877,93.1690221 L20.4220311,93.1690221 L20.4220311,94.9072297 L16.2710877,94.9072297 L16.2710877,102.794022 C16.2710877,104.246852 16.8677858,104.869494 18.2946726,104.869494 L18.2946726,104.869494 L20.2404273,104.869494 L20.2404273,106.659588 L18.320616,106.659588 C15.8559933,106.659588 14.2215594,105.544022 14.2215594,102.819966 L14.2215594,102.819966 L14.2215594,94.9072297 L11.6791065,94.9072297 L11.6791065,93.1690221 L14.3512764,93.1690221 L14.3512764,89.2515693 L16.2710877,89.2515693 Z M44.5585461,92.831758 L44.5585461,94.8812863 L43.3392064,94.8812863 C40.8745838,94.8812863 39.8627913,96.8789278 39.8627913,99.447324 L39.8627913,99.447324 L39.8627913,106.659588 L37.813263,106.659588 L37.813263,93.1690221 L39.8368479,93.1690221 L39.8368479,95.4260976 L39.9925083,95.4260976 C40.3816593,94.2845882 41.7047725,92.831758 43.6764706,92.831758 L43.6764706,92.831758 L44.5585461,92.831758 Z M50.2187847,93.1690221 L50.2187847,106.659588 L48.1692564,106.659588 L48.1692564,94.9072297 L45.6268036,94.9072297 L45.6268036,93.1690221 L50.2187847,93.1690221 Z M75.9378468,92.831758 L75.9378468,94.8812863 L74.7185072,94.8812863 C72.2538846,94.8812863 71.2420921,96.8789278 71.2420921,99.447324 L71.2420921,99.447324 L71.2420921,106.659588 L69.1925638,106.659588 L69.1925638,93.1690221 L71.2161487,93.1690221 L71.2161487,95.4260976 L71.3718091,95.4260976 C71.76096,94.2845882 73.0840733,92.831758 75.0557714,92.831758 L75.0557714,92.831758 L75.9378468,92.831758 Z M23.8898226,98.6351653 C23.1042091,101.567115 24.5198713,104.202561 27.3014643,104.947886 C30.1081167,105.699927 32.6585538,104.100335 33.4374526,101.193445 C34.2096368,98.3116144 32.807404,95.6260494 30.0007516,94.8740091 C27.1940992,94.1219689 24.6552921,95.7783941 23.8898226,98.6351653 Z M56.0580392,99.0913667 C55.4813961,102.361672 57.191965,104.612719 59.6957923,105.054211 C62.3018166,105.513723 64.5663786,103.726507 65.1024764,100.686145 C65.6520893,97.5691356 64.010639,95.2249016 61.4557132,94.7743993 C58.6963934,94.2878568 56.5490867,96.3064976 56.0580392,99.0913667 Z M78.758639,98.2120548 L78.7195438,98.4380478 L87.3775095,99.1955216 C87.4924867,96.3929913 85.6717142,94.8794845 83.4490722,94.6850286 C81.3188446,94.4986578 79.2269097,95.833898 78.758639,98.2120548 Z M49.1810488,87.7468523 C50.0631243,87.7468523 50.6857658,88.3954372 50.6857658,89.2256259 C50.6857658,90.081758 50.0631243,90.7303429 49.1810488,90.7303429 C48.3249168,90.7303429 47.7022752,90.081758 47.7022752,89.2256259 C47.7022752,88.3954372 48.3249168,87.7468523 49.1810488,87.7468523 Z" id="Combined-Shape" fill="#FFFFFF"></path>
        </g>
    </g>
</svg>
